Adwaita++-Dark/actions/22/cm_runterm.svg

<svg height="22" viewBox="0 0 22 22" width="22" xmlns="http://www.w3.org/2000/svg">
  <path d="m2 2v12h12v-12zm1.5 1.1347656 5.1953125 3 .8046875.4316406-.8046875.4335938-5.1953125 3-.5-.8652344 4.4453125-2.5683594-4.4453125-2.5664062z" fill="#e6ddff" transform="translate(3 3)"/>
</svg>

<svg xmlns="http://www.w3.org/2000/svg" width="22" height="22" viewBox="0 0 22 22">
 <defs>
  <style id="current-color-scheme" type="text/css">
   .ColorScheme-Text { color:#E6DDFF; } .ColorScheme-Highlight { color:#4285f4; }
  </style>
 </defs>
 <path style="fill:currentColor" class="ColorScheme-Text" d="M 2 2 L 2 14 L 14 14 L 14 2 L 2 2 z M 3.5 3.1347656 L 8.6953125 6.1347656 L 9.5 6.5664062 L 8.6953125 7 L 3.5 10 L 3 9.1347656 L 7.4453125 6.5664062 L 3 4 L 3.5 3.1347656 z" transform="translate(3 3)"/>
</svg>
